icons/lines/map-one.svg

<svg xmlns="http://www.w3.org/2000/svg" width="24" height="24" viewBox="0 0 24 24" fill="none" stroke="currentColor" stroke-width="2" stroke-linecap="round" stroke-linejoin="round" >
  <path d="M2.29004 7.78V17.51C2.29004 19.41 3.64004 20.19 5.28004 19.25L7.63004 17.91C8.14004 17.62 8.99004 17.59 9.52004 17.86L14.77 20.49C15.3 20.75 16.15 20.73 16.66 20.44L20.99 17.96C21.54 17.64 22 16.86 22 16.22V6.49C22 4.59 20.65 3.81 19.01 4.75L16.66 6.09C16.15 6.38 15.3 6.41 14.77 6.14L9.52004 3.52C8.99004 3.26 8.14004 3.28 7.63004 3.57L3.30004 6.05C2.74004 6.37 2.29004 7.15 2.29004 7.78Z"/>
  <path d="M8.56006 4V17"/>
  <path d="M15.73 6.62V20"/>
  </svg>

<svg xmlns="http://www.w3.org/2000/svg" width="24" height="24" viewBox="0 0 24 24" fill="none" stroke="currentColor" stroke-width="2" stroke-linecap="round" stroke-linejoin="round">
  <path d="M15.73 6.62V20" />
  <path d="M2.29 17.51c0 1.9 1.35 2.68 2.99 1.74l2.35-1.34c.51-.29 1.36-.32 1.89-.05l5.25 2.63c.53.26 1.38.24 1.89-.05l4.33-2.48c.55-.32 1.01-1.1 1.01-1.74V6.49c0-1.9-1.35-2.68-2.99-1.74l-2.35 1.34c-.51.29-1.36.32-1.89.05L9.52 3.52c-.53-.26-1.38-.24-1.89.05L3.3 6.05c-.56.32-1.01 1.1-1.01 1.73z" />
  <path d="M8.56 4v13" />
</svg>
